img/lock.svg

<svg width="16" height="17" viewBox="0 0 16 17" fill="none" xmlns="http://www.w3.org/2000/svg">
<g opacity="0.6">
<path fill-rule="evenodd" clip-rule="evenodd" d="M11.6825 5.43169V6.45391C12.8307 6.81232 13.6673 7.85177 13.6673 9.09329V12.3846C13.6673 13.9215 12.3931 15.1677 10.8221 15.1677H5.17985C3.60822 15.1677 2.33398 13.9215 2.33398 12.3846V9.09329C2.33398 7.85177 3.17128 6.81232 4.31884 6.45391V5.43169C4.32562 3.44421 5.97176 1.83435 7.99049 1.83435C10.0363 1.83435 11.6825 3.44421 11.6825 5.43169ZM8.00404 2.99371C9.37921 2.99371 10.497 4.08683 10.497 5.43169V6.31015H5.50434V5.41844C5.51111 4.0802 6.62886 2.99371 8.00404 2.99371ZM8.5934 11.471C8.5934 11.7956 8.3292 12.054 7.99726 12.054C7.6721 12.054 7.4079 11.7956 7.4079 11.471V10.0002C7.4079 9.68224 7.6721 9.42387 7.99726 9.42387C8.3292 9.42387 8.5934 9.68224 8.5934 10.0002V11.471Z" fill="#222222"/>
</g>
</svg>

<svg width="16" height="17" viewBox="0 0 16 17" fill="none" xmlns="http://www.w3.org/2000/svg"><path fill-rule="evenodd" clip-rule="evenodd" d="M11.682 5.432v1.022c1.149.358 1.985 1.398 1.985 2.64v3.29c0 1.537-1.274 2.784-2.845 2.784H5.18c-1.572 0-2.846-1.246-2.846-2.783V9.093c0-1.241.837-2.28 1.985-2.64v-1.02c.007-1.988 1.653-3.598 3.671-3.598 2.046 0 3.692 1.61 3.692 3.598zM8.005 2.994c1.375 0 2.493 1.093 2.493 2.438v.878H5.504v-.892c.007-1.338 1.125-2.424 2.5-2.424zm.59 8.477a.586.586 0 0 1-.597.583.585.585 0 0 1-.59-.583v-1.47c0-.319.265-.577.59-.577.332 0 .596.258.596.576v1.471z" fill="#222" opacity=".6"/></svg>
